X:4
T:Mrs Casey
S:John Moore's Book 1
Z:Transcribed by Paul Barber-Riley  March 2016
M:6/8
L:1/8
K:D
%%VWML: Moore1-4493-p3-0
F:http://www.vwml.org/record/Moore1/4493/p3
f|d2B B>cB | A2A ABA | B2B BcB | g3 f2f |
d2B BcB | A2A A>cA|B2B B>cB | d3f2:|
|:A|d2e f2g | a2b a2f | d2e f2g | (a3 a2) (g/a/) |
b2g a2f | g2e f2e | d2B B>cB | g3f2:|
